images/icons/facebook_icon_large.svg

<svg width="35" height="35" viewBox="0 0 35 35" fill="none" xmlns="http://www.w3.org/2000/svg">
<circle cx="17.5" cy="17.5" r="17.5" fill="#0078EF"/>
<path d="M20.809 10.4151H22.8029V7.04241C21.8375 6.94202 20.8675 6.89245 19.8968 6.89392C17.012 6.89392 15.0393 8.65453 15.0393 11.8788V14.6576H11.7832V18.4333H15.0393V28.106H18.9423V18.4333H22.1877L22.6756 14.6576H18.9423V12.25C18.9423 11.1363 19.2393 10.4151 20.809 10.4151Z" fill="white"/>
</svg>

<svg xmlns="http://www.w3.org/2000/svg" width="35" height="35" fill="none"><circle cx="17.5" cy="17.5" r="17.5" fill="#0078ef"/><path fill="#fff" d="M20.809 10.415h1.994V7.042a27.69 27.69 0 0 0-2.906-.148c-2.885 0-4.857 1.761-4.857 4.985v2.779h-3.256v3.776h3.256v9.673h3.903v-9.673h3.245l.488-3.776h-3.733V12.25c0-1.114.297-1.835 1.867-1.835z"/></svg>
